gear.svg

<svg width="35" height="35" viewBox="0 0 35 35" fill="none" xmlns="http://www.w3.org/2000/svg">
<path d="M14.8027 14.4683C12.1365 14.4683 9.96741 16.6374 9.96741 19.3035C9.96741 21.9697 12.1365 24.1388 14.8027 24.1388C17.4689 24.1388 19.6379 21.9697 19.6379 19.3035C19.6379 16.6374 17.4689 14.4683 14.8027 14.4683ZM14.8027 22.7582C12.8977 22.7582 11.348 21.2084 11.348 19.3035C11.348 17.3987 12.8978 15.8488 14.8027 15.8488C16.7075 15.8488 18.2574 17.3986 18.2574 19.3035C18.2574 21.2085 16.7076 22.7582 14.8027 22.7582Z" fill="#030305"/>
<path d="M14.8028 12.2995C10.9407 12.2995 7.79871 15.4415 7.79871 19.3036C7.79871 23.1656 10.9407 26.3076 14.8028 26.3076C18.6648 26.3076 21.8068 23.1656 21.8068 19.3036C21.8068 15.4415 18.6648 12.2995 14.8028 12.2995ZM14.8028 24.9271C11.7019 24.9271 9.17927 22.4044 9.17927 19.3036C9.17927 16.2027 11.702 13.6801 14.8028 13.6801C17.9035 13.6801 20.4263 16.2027 20.4263 19.3036C20.4263 22.4044 17.9036 24.9271 14.8028 24.9271Z" fill="#030305"/>
<path d="M33.6447 8.19518H32.1061C31.9475 7.69273 31.7454 7.20524 31.5021 6.73753L32.5904 5.64919C32.86 5.37959 32.86 4.94257 32.5904 4.67298L29.6621 1.74465C29.3925 1.47506 28.9555 1.47506 28.6859 1.74465L27.5973 2.83315C27.1291 2.58963 26.642 2.38761 26.1406 2.22907V0.690282C26.1406 0.309016 25.8316 0 25.4503 0H21.3086C20.9273 0 20.6183 0.309016 20.6183 0.690282V2.22892C20.1166 2.38753 19.6292 2.58955 19.1608 2.83315L18.0723 1.74465C17.8027 1.47506 17.3656 1.47506 17.0961 1.74465L14.3398 4.50094H12.7601C12.3788 4.50094 12.0698 4.80996 12.0698 5.19122V7.02753C11.7193 7.10522 11.3722 7.1978 11.0309 7.30487L10.1132 5.71553C10.0217 5.557 9.87087 5.44126 9.69408 5.39394C9.5173 5.34661 9.32885 5.37139 9.17024 5.46289L5.63239 7.50528C5.47386 7.59686 5.35812 7.74764 5.3108 7.92443C5.2634 8.1013 5.28825 8.28967 5.37975 8.44828L6.29928 10.0409C6.03575 10.283 5.78218 10.5366 5.54005 10.8001L3.94741 9.88061C3.7888 9.78904 3.60051 9.76434 3.42357 9.81166C3.24678 9.85906 3.09599 9.97472 3.00441 10.1333L0.961869 13.6711C0.771275 14.0013 0.884404 14.4234 1.21451 14.614L2.80385 15.5316C2.69685 15.873 2.6042 16.2202 2.52651 16.5707H0.690282C0.309016 16.5707 0 16.8797 0 17.261V21.3461C0 21.7274 0.309016 22.0364 0.690282 22.0364H2.52651C2.6042 22.3869 2.69685 22.734 2.80385 23.0754L1.21451 23.993C1.05598 24.0845 0.94024 24.2353 0.892918 24.4121C0.845518 24.589 0.870368 24.7773 0.961869 24.936L3.00441 28.4738C3.19508 28.804 3.61731 28.917 3.94734 28.7265L5.53997 27.807C5.78203 28.0705 6.03567 28.3241 6.2992 28.5662L5.37967 30.1589C5.28817 30.3174 5.26332 30.5058 5.31072 30.6827C5.35812 30.8595 5.47378 31.0103 5.63231 31.1019L9.17016 33.1444C9.50027 33.335 9.92249 33.2219 10.1131 32.8918L11.0306 31.3024C11.3721 31.4095 11.7191 31.5022 12.0696 31.5798V33.416C12.0696 33.7973 12.3787 34.1063 12.7599 34.1063H16.8451C17.2264 34.1063 17.5354 33.7973 17.5354 33.416V31.5798C17.8859 31.5021 18.233 31.4094 18.5744 31.3024L19.4919 32.8918C19.6827 33.2219 20.1048 33.335 20.4349 33.1444L23.9727 31.1019C24.1312 31.0103 24.247 30.8595 24.2943 30.6827C24.3417 30.5058 24.3169 30.3174 24.2254 30.1589L23.3058 28.5662C23.5694 28.3241 23.823 28.0705 24.0651 27.807L25.6577 28.7265C25.988 28.9171 26.4101 28.8039 26.6006 28.4738L28.6432 24.936C28.7347 24.7774 28.7595 24.589 28.7121 24.4121C28.6647 24.2353 28.549 24.0845 28.3905 23.993L26.8012 23.0754C26.9082 22.734 27.0008 22.3869 27.0785 22.0364H28.9151C29.2964 22.0364 29.6054 21.7274 29.6054 21.3461V20.2183C29.625 20.2025 29.6441 20.1859 29.6621 20.168L32.5904 17.2389C32.8599 16.9693 32.8599 16.5322 32.5903 16.2627L31.5022 15.1745C31.7453 14.7074 31.9472 14.2201 32.1061 13.7174H33.6447C34.026 13.7174 34.335 13.4083 34.335 13.0271V8.88538C34.335 8.50419 34.0259 8.19518 33.6447 8.19518ZM28.2248 20.6558H26.5116C26.1759 20.6558 25.8888 20.8974 25.8315 21.2282C25.7177 21.8848 25.5449 22.5322 25.3177 23.1527C25.2023 23.4677 25.3302 23.8201 25.6207 23.9878L27.1028 24.8435L25.7504 27.1857L24.2652 26.3283C23.9749 26.1608 23.6059 26.2259 23.3907 26.483C22.965 26.9918 22.4911 27.4657 21.9822 27.8916C21.725 28.1068 21.6597 28.4757 21.8274 28.7661L22.6849 30.2513L20.3426 31.6035L19.487 30.1216C19.3191 29.831 18.9667 29.7032 18.6518 29.8186C18.0313 30.0457 17.3838 30.2186 16.7274 30.3323C16.3966 30.3896 16.155 30.6767 16.155 31.0124V32.7256H13.4504V31.0124C13.4504 30.6767 13.2088 30.3896 12.8779 30.3323C12.2215 30.2186 11.574 30.0457 10.9535 29.8186C10.6385 29.7032 10.2861 29.8311 10.1184 30.1216L9.26273 31.6035L6.92046 30.2513L7.77794 28.7661C7.9456 28.4757 7.88033 28.1068 7.62316 27.8916C7.1142 27.4656 6.64036 26.9918 6.21461 26.483C5.99931 26.2259 5.63047 26.1606 5.34009 26.3283L3.85492 27.1857L2.50265 24.8435L3.98461 23.9879C4.27514 23.8201 4.403 23.4677 4.28765 23.1527C4.06047 22.5322 3.88759 21.8848 3.77392 21.2284C3.71655 20.8976 3.42955 20.6559 3.09377 20.6559H1.38056V17.9513H3.09377C3.42955 17.9513 3.71663 17.7097 3.77392 17.3788C3.88759 16.7224 4.06047 16.075 4.28765 15.4545C4.403 15.1395 4.27514 14.7871 3.98461 14.6193L2.50258 13.7637L3.85492 11.4214L5.34009 12.2789C5.63055 12.4465 5.99931 12.3812 6.21461 12.1241C6.64059 11.6152 7.11443 11.1413 7.62316 10.7155C7.88033 10.5003 7.9456 10.1314 7.77794 9.84104L6.92046 8.35586L9.26273 7.00352L10.1184 8.48548C10.2861 8.77601 10.6383 8.90387 10.9535 8.78859C11.5741 8.56141 12.2216 8.38853 12.878 8.27479C13.2088 8.2175 13.4504 7.93042 13.4504 7.59463V5.88143H16.155V7.59463C16.155 7.93042 16.3966 8.2175 16.7274 8.27479C17.3838 8.38853 18.0313 8.56141 18.6518 8.78859C18.9667 8.90394 19.3192 8.77609 19.487 8.48555L20.3426 7.0036L22.6849 8.35594L21.8274 9.84111C21.6597 10.1315 21.7251 10.5004 21.9822 10.7156C22.491 11.1415 22.9649 11.6154 23.3907 12.1242C23.6059 12.3814 23.9749 12.4465 24.2652 12.279L25.7505 11.4215L27.1028 13.7638L25.6207 14.6194C25.3302 14.7872 25.2023 15.1396 25.3177 15.4546C25.5449 16.075 25.7177 16.7225 25.8315 17.379C25.8888 17.7098 26.1759 17.9514 26.5116 17.9514H28.2248V20.6558ZM32.9544 12.3369H31.5846C31.2682 12.3369 30.9924 12.5519 30.9152 12.8587C30.7306 13.592 30.4406 14.2918 30.0529 14.9388C29.8902 15.2104 29.9331 15.5579 30.1569 15.7817L31.1262 16.7509L29.6054 18.2721V17.261C29.6054 16.8798 29.2964 16.5707 28.9151 16.5707H27.0788C27.0011 16.2202 26.9085 15.8731 26.8015 15.5317L28.3908 14.6141C28.5494 14.5225 28.6651 14.3717 28.7124 14.195C28.7598 14.0182 28.735 13.8297 28.6435 13.6712L26.6009 10.1333C26.4102 9.80315 25.9881 9.69017 25.658 9.88069L24.0654 10.8002C23.8233 10.5367 23.5697 10.283 23.3061 10.041L24.2257 8.44836C24.3172 8.28982 24.342 8.10137 24.2946 7.92451C24.2472 7.74772 24.1316 7.59693 23.973 7.50536L20.4352 5.46273C20.2766 5.37116 20.0883 5.34638 19.9113 5.39378C19.7345 5.44118 19.5837 5.55684 19.4922 5.71538L18.5746 7.30471C18.2332 7.19764 17.886 7.10507 17.5356 7.02737V5.19115C17.5356 4.80988 17.2266 4.50087 16.8453 4.50087H16.2923L17.5842 3.20889L18.5534 4.17804C18.777 4.40177 19.1239 4.44472 19.3955 4.28258C20.0463 3.89372 20.7466 3.6035 21.477 3.41989C21.7838 3.34273 21.999 3.06684 21.999 2.75039V1.38056H24.7601V2.75039C24.7601 3.06677 24.9752 3.34257 25.2819 3.41981C26.012 3.6035 26.7121 3.8938 27.3628 4.28258C27.6343 4.4448 27.9813 4.40177 28.2048 4.17804L29.174 3.20889L31.1261 5.16101L30.1569 6.13016C29.9332 6.35389 29.8902 6.70118 30.0527 6.97269C30.4409 7.62132 30.731 8.32142 30.9151 9.05366C30.9923 9.36052 31.2681 9.57566 31.5846 9.57566H32.9544V12.3369Z" fill="#030305"/>
</svg>

<svg width="35" height="35" fill="none" xmlns="http://www.w3.org/2000/svg"><path d="M14.803 14.468a4.84 4.84 0 0 0-4.836 4.835 4.84 4.84 0 0 0 4.836 4.836 4.84 4.84 0 0 0 4.835-4.835 4.84 4.84 0 0 0-4.835-4.836Zm0 8.29a3.459 3.459 0 0 1-3.455-3.454 3.459 3.459 0 0 1 3.455-3.455 3.459 3.459 0 0 1 3.454 3.454 3.459 3.459 0 0 1-3.454 3.455Z" fill="#030305"/><path d="M14.803 12.3a7.012 7.012 0 0 0-7.004 7.004 7.012 7.012 0 0 0 7.004 7.004 7.012 7.012 0 0 0 7.004-7.004 7.012 7.012 0 0 0-7.004-7.004Zm0 12.627a5.63 5.63 0 0 1-5.624-5.623 5.63 5.63 0 0 1 5.624-5.624 5.63 5.63 0 0 1 5.623 5.624 5.63 5.63 0 0 1-5.623 5.623Z" fill="#030305"/><path d="M33.645 8.195h-1.539a9.082 9.082 0 0 0-.604-1.457l1.088-1.089a.69.69 0 0 0 0-.976l-2.928-2.928a.69.69 0 0 0-.976 0l-1.089 1.088a9.105 9.105 0 0 0-1.456-.604V.69a.69.69 0 0 0-.69-.69h-4.142a.69.69 0 0 0-.69.69V2.23a9.11 9.11 0 0 0-1.458.604l-1.089-1.088a.69.69 0 0 0-.976 0L14.34 4.5h-1.58a.69.69 0 0 0-.69.69v1.837c-.35.077-.698.17-1.04.277l-.917-1.59a.69.69 0 0 0-.943-.252L5.632 7.505a.69.69 0 0 0-.252.943l.92 1.593c-.264.242-.518.496-.76.76l-1.593-.92a.69.69 0 0 0-.943.252L.962 13.671a.69.69 0 0 0 .253.943l1.589.918c-.107.341-.2.688-.277 1.039H.69a.69.69 0 0 0-.69.69v4.085c0 .381.309.69.69.69h1.837c.077.35.17.698.277 1.04l-1.59.917a.69.69 0 0 0-.252.943l2.042 3.538a.69.69 0 0 0 .943.253l1.593-.92c.242.264.496.517.76.76l-.92 1.592a.69.69 0 0 0 .252.943l3.538 2.042a.69.69 0 0 0 .943-.252l.918-1.59c.341.108.688.2 1.039.278v1.836c0 .381.309.69.69.69h4.085a.69.69 0 0 0 .69-.69V31.58c.35-.078.698-.17 1.04-.278l.917 1.59a.69.69 0 0 0 .943.252l3.538-2.042a.69.69 0 0 0 .252-.943l-.92-1.593c.264-.242.518-.495.76-.759l1.593.92a.69.69 0 0 0 .943-.253l2.042-3.538a.69.69 0 0 0-.253-.943l-1.589-.918c.107-.341.2-.688.277-1.039h1.837a.69.69 0 0 0 .69-.69v-1.128a.728.728 0 0 0 .057-.05l2.928-2.93a.69.69 0 0 0 0-.975l-1.088-1.089c.243-.467.445-.954.604-1.457h1.539a.69.69 0 0 0 .69-.69V8.885a.69.69 0 0 0-.69-.69Zm-5.42 12.46h-1.713a.69.69 0 0 0-.68.573 11.148 11.148 0 0 1-.514 1.925.69.69 0 0 0 .303.835l1.482.855-1.353 2.343-1.485-.858a.69.69 0 0 0-.874.155c-.426.509-.9.983-1.409 1.409a.69.69 0 0 0-.155.874l.858 1.485-2.342 1.352-.856-1.481a.69.69 0 0 0-.835-.303c-.62.227-1.268.4-1.925.513a.69.69 0 0 0-.572.68v1.714H13.45v-1.714a.69.69 0 0 0-.572-.68 11.151 11.151 0 0 1-1.925-.513.69.69 0 0 0-.835.303l-.855 1.482L6.92 30.25l.858-1.485a.69.69 0 0 0-.155-.874 11.29 11.29 0 0 1-1.408-1.409.69.69 0 0 0-.875-.155l-1.485.858-1.352-2.343 1.482-.855a.69.69 0 0 0 .303-.835 11.14 11.14 0 0 1-.514-1.925.69.69 0 0 0-.68-.572H1.38V17.95h1.713a.69.69 0 0 0 .68-.572 11.14 11.14 0 0 1 .514-1.925.69.69 0 0 0-.303-.835l-1.482-.855 1.352-2.343 1.485.858a.69.69 0 0 0 .875-.155 11.3 11.3 0 0 1 1.408-1.409.69.69 0 0 0 .155-.874L6.92 8.356l2.343-1.352.855 1.481a.69.69 0 0 0 .835.304c.621-.228 1.269-.4 1.925-.514a.69.69 0 0 0 .572-.68V5.88h2.705v1.714a.69.69 0 0 0 .572.68c.657.114 1.304.286 1.925.514a.69.69 0 0 0 .835-.303l.856-1.482 2.342 1.352-.858 1.485a.69.69 0 0 0 .155.875c.509.426.983.9 1.409 1.408a.69.69 0 0 0 .874.155l1.485-.857 1.353 2.342-1.482.855a.69.69 0 0 0-.303.836c.227.62.4 1.268.513 1.924a.69.69 0 0 0 .68.572h1.714v2.705Zm4.73-8.318h-1.37a.69.69 0 0 0-.67.522 7.7 7.7 0 0 1-.862 2.08.69.69 0 0 0 .104.843l.97.969-1.522 1.521v-1.011a.69.69 0 0 0-.69-.69H27.08a12.58 12.58 0 0 0-.277-1.04l1.589-.917a.69.69 0 0 0 .253-.943L26.6 10.133a.69.69 0 0 0-.943-.252l-1.593.92a12.645 12.645 0 0 0-.759-.76l.92-1.593a.69.69 0 0 0-.253-.943l-3.538-2.042a.69.69 0 0 0-.943.252l-.917 1.59c-.342-.107-.689-.2-1.04-.278V5.191a.69.69 0 0 0-.69-.69h-.553l1.292-1.292.97.969a.69.69 0 0 0 .841.105 7.73 7.73 0 0 1 2.082-.863.69.69 0 0 0 .522-.67V1.38h2.761v1.37a.69.69 0 0 0 .522.67c.73.183 1.43.474 2.08.863a.69.69 0 0 0 .843-.105l.969-.97 1.952 1.953-.97.97a.69.69 0 0 0-.103.842 7.71 7.71 0 0 1 .862 2.08.69.69 0 0 0 .67.523h1.37v2.76Z" fill="#030305"/></svg>
